genesis/buttons.svg

<?xml version="1.0" encoding="UTF-8" standalone="no"?>
<svg
   xmlns:osb="http://www.openswatchbook.org/uri/2009/osb"
   xmlns:dc="http://purl.org/dc/elements/1.1/"
   xmlns:cc="http://creativecommons.org/ns#"
   xmlns:rdf="http://www.w3.org/1999/02/22-rdf-syntax-ns#"
   xmlns:svg="http://www.w3.org/2000/svg"
   xmlns="http://www.w3.org/2000/svg"
   id="svg8"
   version="1.1"
   viewBox="0 0 285.74999 95.250003"
   height="360"
   width="1080">
  <defs
     id="defs2">
    <linearGradient
       osb:paint="solid"
       id="linearGradient7776">
      <stop
         id="stop7774"
         offset="0"
         style="stop-color:#ffffff;stop-opacity:1;" />
    </linearGradient>
  </defs>
  <metadata
     id="metadata5">
    <rdf:RDF>
      <cc:Work
         rdf:about="">
        <dc:format>image/svg+xml</dc:format>
        <dc:type
           rdf:resource="http://purl.org/dc/dcmitype/StillImage" />
        <dc:title></dc:title>
        <cc:license
           rdf:resource="http://creativecommons.org/licenses/by-nc-sa/4.0/" />
      </cc:Work>
      <cc:License
         rdf:about="http://creativecommons.org/licenses/by-nc-sa/4.0/">
        <cc:permits
           rdf:resource="http://creativecommons.org/ns#Reproduction" />
        <cc:permits
           rdf:resource="http://creativecommons.org/ns#Distribution" />
        <cc:requires
           rdf:resource="http://creativecommons.org/ns#Notice" />
        <cc:requires
           rdf:resource="http://creativecommons.org/ns#Attribution" />
        <cc:prohibits
           rdf:resource="http://creativecommons.org/ns#CommercialUse" />
        <cc:permits
           rdf:resource="http://creativecommons.org/ns#DerivativeWorks" />
        <cc:requires
           rdf:resource="http://creativecommons.org/ns#ShareAlike" />
      </cc:License>
    </rdf:RDF>
  </metadata>
  <g
     style="display:none"
     id="layer7">
    <rect
       ry="5.2916665"
       rx="5.2916665"
       y="-3.7797661"
       x="-3.5908053"
       height="102.80953"
       width="292.93161"
       id="rect9839"
       style="opacity:1;fill:#000000;fill-opacity:1;stroke:#ffffff;stroke-width:1.32300007;stroke-miterlimit:4;stroke-dasharray:none;stroke-opacity:1" />
  </g>
  <g
     style="display:inline"
     id="layer1" />
  <g
     id="layer6">
    <circle
       transform="rotate(-24.881873)"
       r="8.8198938"
       cy="130.64917"
       cx="128.78416"
       id="path7046-8-2"
       style="display:inline;opacity:1;fill:#ffffff;fill-opacity:1;stroke:none;stroke-width:1.32300007;stroke-miterlimit:4;stroke-dasharray:none;stroke-opacity:1" />
    <path
       id="rect7063-6-6"
       d="m 78.121402,37.57122 c -0.29316,0 -0.52917,0.236008 -0.52917,0.529167 v 11.297502 h -11.29749 c -0.29316,0 -0.52917,0.236008 -0.52917,0.529166 v 9.097637 c 0,0.293159 0.23601,0.529167 0.52917,0.529167 h 11.29749 v 11.297502 c 0,0.293158 0.23601,0.529167 0.52917,0.529167 h 9.09816 c 0.29316,0 0.52917,-0.236009 0.52917,-0.529167 V 59.553859 h 11.29751 c 0.29315,0 0.52915,-0.236008 0.52915,-0.529167 v -9.097637 c 0,-0.293158 -0.236,-0.529166 -0.52915,-0.529166 H 87.748732 V 38.100387 c 0,-0.293159 -0.23601,-0.529167 -0.52917,-0.529167 z"
       style="display:inline;opacity:1;fill:#ffffff;fill-opacity:1;stroke:none;stroke-width:1.32300007;stroke-miterlimit:4;stroke-dasharray:none;stroke-opacity:1" />
    <circle
       transform="rotate(-24.881873)"
       r="8.8198938"
       cy="130.72346"
       cx="151.38138"
       id="path7046-8-2-1"
       style="display:inline;opacity:1;fill:#ffffff;fill-opacity:1;stroke:none;stroke-width:1.32300007;stroke-miterlimit:4;stroke-dasharray:none;stroke-opacity:1" />
    <circle
       transform="rotate(-24.881873)"
       r="8.8198938"
       cy="131.0504"
       cx="173.97859"
       id="path7046-8-2-1-7"
       style="display:inline;opacity:1;fill:#ffffff;fill-opacity:1;stroke:none;stroke-width:1.32300007;stroke-miterlimit:4;stroke-dasharray:none;stroke-opacity:1" />
    <rect
       transform="rotate(-27.221189)"
       ry="2.6458333"
       rx="2.6458333"
       y="102.34298"
       x="135.73991"
       height="4.543582"
       width="18.976135"
       id="rect4775"
       style="opacity:1;fill:#ffffff;fill-opacity:1;stroke:none;stroke-width:1.25422513;stroke-miterlimit:4;stroke-dasharray:none;stroke-opacity:1" />
    <path
       id="path7046-8-2-4"
       d="M 82.552313,35.767288 A 18.708873,18.708873 0 0 0 75.276137,37.289953 18.708873,18.708873 0 0 0 65.484683,61.870097 18.708873,18.708873 0 0 0 90.064827,71.661544 18.708873,18.708873 0 0 0 99.856281,47.0814 18.708873,18.708873 0 0 0 82.552313,35.767288 Z m 0.014,2.24517 A 16.463808,16.463808 0 0 1 97.793922,47.968857 16.463808,16.463808 0 0 1 89.177385,69.599172 16.463808,16.463808 0 0 1 67.54707,60.98264 16.463808,16.463808 0 0 1 76.163607,39.352325 16.463808,16.463808 0 0 1 82.566313,38.012458 Z"
       style="display:inline;opacity:1;fill:#ffffff;fill-opacity:1;stroke:none;stroke-width:2.80636454;stroke-miterlimit:4;stroke-dasharray:none;stroke-opacity:1" />
  </g>
  <g
     style="display:none"
     id="layer2">
    <rect
       transform="rotate(-26.428089)"
       ry="2.6458333"
       rx="2.6458333"
       y="114.51012"
       x="70.028793"
       height="5.7429485"
       width="16.180895"
       id="rect4517-4-8-5"
       style="display:inline;opacity:1;fill:#ffffff;fill-opacity:1;stroke:none;stroke-width:1.34773445;stroke-miterlimit:4;stroke-dasharray:none;stroke-opacity:1" />
    <rect
       transform="rotate(-26.428089)"
       ry="2.6458333"
       rx="2.6458333"
       y="126.18195"
       x="91.834175"
       height="5.7429485"
       width="16.180895"
       id="rect4517-4-8-7-0"
       style="display:inline;opacity:1;fill:#ffffff;fill-opacity:1;stroke:none;stroke-width:1.34773445;stroke-miterlimit:4;stroke-dasharray:none;stroke-opacity:1" />
    <circle
       r="8.8198938"
       cy="39.651035"
       cx="170.51808"
       id="path7046-8"
       style="display:inline;opacity:1;fill:#ffffff;fill-opacity:1;stroke:none;stroke-width:1.32300007;stroke-miterlimit:4;stroke-dasharray:none;stroke-opacity:1" />
    <circle
       r="8.8198938"
       cy="28.68973"
       cx="194.19438"
       id="path7046-1-5"
       style="display:inline;opacity:1;fill:#ffffff;fill-opacity:1;stroke:none;stroke-width:1.32300007;stroke-miterlimit:4;stroke-dasharray:none;stroke-opacity:1" />
    <path
       id="rect7063-6"
       d="m 95.091557,18.883998 c -0.29316,0 -0.52917,0.236008 -0.52917,0.529167 V 30.710667 H 83.264889 c -0.293155,0 -0.529166,0.236008 -0.529166,0.529166 v 9.097637 c 0,0.293159 0.236011,0.529167 0.529166,0.529167 h 11.297498 v 11.297502 c 0,0.293158 0.23601,0.529167 0.52917,0.529167 h 9.098153 c 0.29316,0 0.52917,-0.236009 0.52917,-0.529167 V 40.866637 h 11.29751 c 0.29315,0 0.52915,-0.236008 0.52915,-0.529167 v -9.097637 c 0,-0.293158 -0.236,-0.529166 -0.52915,-0.529166 H 104.71888 V 19.413165 c 0,-0.293159 -0.23601,-0.529167 -0.52917,-0.529167 z"
       style="display:inline;opacity:1;fill:#ffffff;fill-opacity:1;stroke:none;stroke-width:1.32300007;stroke-miterlimit:4;stroke-dasharray:none;stroke-opacity:1" />
  </g>
  <g
     style="display:none"
     id="layer5">
    <circle
       r="8.8198938"
       cy="45.499706"
       cx="189.97234"
       id="path7046-8-8"
       style="display:inline;opacity:1;fill:#ffffff;fill-opacity:1;stroke:none;stroke-width:1.32300007;stroke-miterlimit:4;stroke-dasharray:none;stroke-opacity:1" />
    <circle
       r="8.8198938"
       cy="37.184235"
       cx="215.16054"
       id="path7046-1-5-4"
       style="display:inline;opacity:1;fill:#ffffff;fill-opacity:1;stroke:none;stroke-width:1.32300007;stroke-miterlimit:4;stroke-dasharray:none;stroke-opacity:1" />
    <path
       id="rect7063-6-0"
       d="m 74.125407,24.354694 c -0.29316,0 -0.52917,0.236008 -0.52917,0.529167 V 36.181363 H 62.298739 c -0.293155,0 -0.529166,0.236008 -0.529166,0.529166 v 9.097637 c 0,0.293159 0.236011,0.529167 0.529166,0.529167 h 11.297498 v 11.297502 c 0,0.293158 0.23601,0.529167 0.52917,0.529167 h 9.098152 c 0.29316,0 0.52917,-0.236009 0.52917,-0.529167 V 46.337333 h 11.29751 c 0.29315,0 0.52915,-0.236008 0.52915,-0.529167 v -9.097637 c 0,-0.293158 -0.236,-0.529166 -0.52915,-0.529166 H 83.752729 V 24.883861 c 0,-0.293159 -0.23601,-0.529167 -0.52917,-0.529167 z"
       style="display:inline;opacity:1;fill:#ffffff;fill-opacity:1;stroke:none;stroke-width:1.32300007;stroke-miterlimit:4;stroke-dasharray:none;stroke-opacity:1" />
    <circle
       r="4.0951915"
       cy="68.736328"
       cx="97.718376"
       id="path7046-8-8-3"
       style="display:inline;opacity:1;fill:#ffffff;fill-opacity:1;stroke:none;stroke-width:0.61428612;stroke-miterlimit:4;stroke-dasharray:none;stroke-opacity:1" />
    <path
       id="rect9755-89"
       d="m 75.855007,7.4884249 c -0.65236,0 -5.617095,0.10728 -8.999476,0.361373 -2.766584,0.554865 -5.39964,1.306405 -5.493395,1.331543 l -5.33101,1.5802691 c -2.829288,0.7586 -5.081207,5.789743 -3.652491,8.06219 1.273685,2.025863 3.732588,1.939775 6.561873,1.181176 l 6.534242,-1.914357 c 2.064753,-0.421899 7.585767,-1.406283 9.816887,-1.341776 h 14.15864 c 2.931581,0 5.291664,-2.065073 5.291664,-4.630209 0,-2.5651361 -2.360083,-4.6302091 -5.291664,-4.6302091 z"
       style="display:inline;opacity:1;fill:#ffffff;fill-opacity:1;stroke:none;stroke-width:1.32300007;stroke-miterlimit:4;stroke-dasharray:none;stroke-opacity:1" />
    <path
       id="rect9755-8-4"
       d="m 209.89499,7.8278799 c 0.65236,0 5.61709,0.10728 8.99947,0.361373 2.76659,0.554864 5.39965,1.306404 5.4934,1.331542 l 5.33101,1.5802701 c 2.82929,0.758599 5.08121,5.789742 3.65249,8.062189 -1.27368,2.025863 -3.73259,1.939775 -6.56187,1.181176 l -6.53424,-1.914357 c -2.06476,-0.421899 -7.58577,-1.406283 -9.81689,-1.341776 h -14.15864 c -2.93158,0 -5.29166,-2.065073 -5.29166,-4.630209 0,-2.5651351 2.36008,-4.6302081 5.29166,-4.6302081 z"
       style="display:inline;opacity:1;fill:#ffffff;fill-opacity:1;stroke:none;stroke-width:1.32300007;stroke-miterlimit:4;stroke-dasharray:none;stroke-opacity:1" />
    <circle
       r="4.0951915"
       cy="83.666382"
       cx="97.718376"
       id="path7046-8-8-3-4"
       style="display:inline;opacity:1;fill:#ffffff;fill-opacity:1;stroke:none;stroke-width:0.61428612;stroke-miterlimit:4;stroke-dasharray:none;stroke-opacity:1" />
  </g>
  <g
     style="display:none"
     id="layer9">
    <circle
       r="7.3499112"
       cy="67.657303"
       cx="193.8575"
       id="path7046-1-3-78"
       style="display:inline;opacity:1;fill:#ffffff;fill-opacity:1;stroke:none;stroke-width:1.1025002;stroke-miterlimit:4;stroke-dasharray:none;stroke-opacity:1" />
    <path
       id="rect7063-0-1"
       d="m 69.938627,27.292489 c -0.29316,0 -0.52917,0.236008 -0.52917,0.529167 V 39.119159 H 58.111954 c -0.29315,0 -0.52916,0.236006 -0.52916,0.529164 v 9.097638 c 0,0.29316 0.23601,0.529166 0.52916,0.529166 h 11.297503 v 11.297505 c 0,0.293155 0.23601,0.529166 0.52917,0.529166 h 9.09815 c 0.29316,0 0.52917,-0.236011 0.52917,-0.529166 V 49.275127 h 11.297511 c 0.293148,0 0.529148,-0.236006 0.529148,-0.529166 v -9.097638 c 0,-0.293158 -0.236,-0.529164 -0.529148,-0.529164 H 79.565947 V 27.821656 c 0,-0.293159 -0.23601,-0.529167 -0.52917,-0.529167 z"
       style="display:inline;opacity:1;fill:#ffffff;fill-opacity:1;stroke:none;stroke-width:1.32300007;stroke-miterlimit:4;stroke-dasharray:none;stroke-opacity:1" />
    <circle
       r="6.0269947"
       cy="50.713524"
       cx="210.22357"
       id="path7046-1-3-5-0"
       style="display:inline;opacity:1;fill:#ffffff;fill-opacity:1;stroke:none;stroke-width:0.90406024;stroke-miterlimit:4;stroke-dasharray:none;stroke-opacity:1" />
    <circle
       r="7.3499112"
       cy="51.07806"
       cx="179.34604"
       id="path7046-1-3-7-8"
       style="display:inline;opacity:1;fill:#ffffff;fill-opacity:1;stroke:none;stroke-width:1.1025002;stroke-miterlimit:4;stroke-dasharray:none;stroke-opacity:1" />
    <path
       id="rect9755-2"
       d="m 85.173102,4.5339398 c -0.652362,0 -5.617093,0.10728 -8.999474,0.361373 -2.766584,0.554865 -5.39964,1.306405 -5.493395,1.331543 l -5.33101,1.580269 c -2.829289,0.7586003 -5.081209,5.7897442 -3.652489,8.0621902 1.27368,2.025863 3.732586,1.939775 6.561871,1.181176 l 6.534242,-1.914357 c 2.064753,-0.421899 7.585766,-1.406283 9.816888,-1.341776 h 14.158631 c 2.931594,0 5.291674,-2.065073 5.291674,-4.6302089 0,-2.5651363 -2.36008,-4.6302093 -5.291674,-4.6302093 z"
       style="display:inline;opacity:1;fill:#ffffff;fill-opacity:1;stroke:none;stroke-width:1.32300007;stroke-miterlimit:4;stroke-dasharray:none;stroke-opacity:1" />
    <path
       id="rect9755-8-7"
       d="m 199.68343,4.8733948 c 0.65236,0 5.61709,0.10728 8.99947,0.361373 2.76659,0.554864 5.39965,1.306404 5.4934,1.331542 l 5.33101,1.5802703 c 2.82929,0.758599 5.08121,5.7897419 3.65249,8.0621889 -1.27368,2.025863 -3.73259,1.939775 -6.56187,1.181176 l -6.53424,-1.914357 c -2.06476,-0.421899 -7.58577,-1.406283 -9.81689,-1.341776 h -14.15864 c -2.93158,0 -5.29166,-2.065073 -5.29166,-4.6302089 0,-2.5651353 2.36008,-4.6302083 5.29166,-4.6302083 z"
       style="display:inline;opacity:1;fill:#ffffff;fill-opacity:1;stroke:none;stroke-width:1.32300007;stroke-miterlimit:4;stroke-dasharray:none;stroke-opacity:1" />
    <circle
       r="7.3499112"
       cy="47.133572"
       cx="139.83589"
       id="path7046-1-3-7-8-5"
       style="display:inline;opacity:1;fill:#ffffff;fill-opacity:1;stroke:none;stroke-width:1.1025002;stroke-miterlimit:4;stroke-dasharray:none;stroke-opacity:1" />
    <circle
       r="6.0269947"
       cy="27.818802"
       cx="210.05536"
       id="path7046-1-3-5-0-4"
       style="display:inline;opacity:1;fill:#ffffff;fill-opacity:1;stroke:none;stroke-width:0.90406024;stroke-miterlimit:4;stroke-dasharray:none;stroke-opacity:1" />
    <circle
       r="6.0269947"
       cy="38.496628"
       cx="197.57176"
       id="path7046-1-3-5-0-4-0"
       style="display:inline;opacity:1;fill:#ffffff;fill-opacity:1;stroke:none;stroke-width:0.90406024;stroke-miterlimit:4;stroke-dasharray:none;stroke-opacity:1" />
    <circle
       r="6.0269947"
       cy="39.252579"
       cx="222.14021"
       id="path7046-1-3-5-0-4-9"
       style="display:inline;opacity:1;fill:#ffffff;fill-opacity:1;stroke:none;stroke-width:0.90406024;stroke-miterlimit:4;stroke-dasharray:none;stroke-opacity:1" />
    <g
       transform="translate(-3.4170857,22.301111)"
       id="g10078">
      <path
         style="opacity:1;fill:#ffffff;fill-opacity:1;stroke:none;stroke-width:1.32300007;stroke-miterlimit:4;stroke-dasharray:none;stroke-opacity:1"
         d="m 142.875,40.064222 -10.02368,4.151686 -4.15168,10.023676 4.15168,10.023675 10.02368,4.15169 10.02368,-4.15169 4.15168,-10.023675 -4.15168,-10.023676 z m 0,3.990454 A 10.184732,10.184732 0 0 1 153.05991,54.239584 10.184732,10.184732 0 0 1 142.875,64.424489 10.184732,10.184732 0 0 1 132.69009,54.239584 10.184732,10.184732 0 0 1 142.875,44.054676 Z"
         id="path10043" />
      <circle
         style="display:inline;opacity:1;fill:#ffffff;fill-opacity:1;stroke:none;stroke-width:1.28676581;stroke-miterlimit:4;stroke-dasharray:none;stroke-opacity:1"
         id="path7046-1-3-7-8-5-8"
         cx="142.875"
         cy="54.239586"
         r="8.5783339" />
    </g>
  </g>
  <g
     style="display:none"
     id="layer4">
    <rect
       transform="rotate(-35.097299)"
       ry="2.6458333"
       rx="2.6458333"
       y="118.17863"
       x="54.241798"
       height="5.7429485"
       width="16.180895"
       id="rect4517-4-8"
       style="opacity:1;fill:#ffffff;fill-opacity:1;stroke:none;stroke-width:1.34773445;stroke-miterlimit:4;stroke-dasharray:none;stroke-opacity:1" />
    <circle
       r="7.3499112"
       cy="71.699539"
       cx="194.67108"
       id="path7046-1-3"
       style="opacity:1;fill:#ffffff;fill-opacity:1;stroke:none;stroke-width:1.10250008;stroke-miterlimit:4;stroke-dasharray:none;stroke-opacity:1" />
    <path
       id="rect7063-0"
       d="m 76.799832,40.028173 c -0.29316,0 -0.52917,0.236008 -0.52917,0.529167 v 11.297502 h -11.2975 c -0.29315,0 -0.52916,0.236008 -0.52916,0.529166 v 9.097637 c 0,0.293159 0.23601,0.529167 0.52916,0.529167 h 11.2975 v 11.297502 c 0,0.293158 0.23601,0.529167 0.52917,0.529167 h 9.09815 c 0.29316,0 0.52917,-0.236009 0.52917,-0.529167 V 62.010812 h 11.29751 c 0.29315,0 0.52915,-0.236008 0.52915,-0.529167 v -9.097637 c 0,-0.293158 -0.236,-0.529166 -0.52915,-0.529166 H 86.427152 V 40.55734 c 0,-0.293159 -0.23601,-0.529167 -0.52917,-0.529167 z"
       style="opacity:1;fill:#ffffff;fill-opacity:1;stroke:none;stroke-width:1.32300007;stroke-miterlimit:4;stroke-dasharray:none;stroke-opacity:1" />
    <circle
       r="7.3499112"
       cy="57.590572"
       cx="213.95609"
       id="path7046-1-3-5"
       style="opacity:1;fill:#ffffff;fill-opacity:1;stroke:none;stroke-width:1.1025002;stroke-miterlimit:4;stroke-dasharray:none;stroke-opacity:1" />
    <circle
       r="7.3499112"
       cy="57.388149"
       cx="176.75784"
       id="path7046-1-3-7"
       style="opacity:1;fill:#ffffff;fill-opacity:1;stroke:none;stroke-width:1.1025002;stroke-miterlimit:4;stroke-dasharray:none;stroke-opacity:1" />
    <circle
       r="7.3499112"
       cy="43.227478"
       cx="196.03462"
       id="path7046-1-3-9"
       style="opacity:1;fill:#ffffff;fill-opacity:1;stroke:none;stroke-width:1.1025002;stroke-miterlimit:4;stroke-dasharray:none;stroke-opacity:1" />
    <rect
       transform="rotate(-35.097298)"
       ry="2.6458333"
       rx="2.6458333"
       y="130.70573"
       x="71.823296"
       height="5.7429485"
       width="16.180895"
       id="rect4517-4-8-7"
       style="opacity:1;fill:#ffffff;fill-opacity:1;stroke:none;stroke-width:1.34773445;stroke-miterlimit:4;stroke-dasharray:none;stroke-opacity:1" />
    <path
       id="rect9755"
       d="m 85.619838,16.200546 c -0.652362,0 -5.617093,0.10728 -8.999474,0.361373 -2.766584,0.554865 -5.39964,1.306405 -5.493395,1.331543 l -5.33101,1.580269 c -2.829288,0.7586 -5.081207,5.789743 -3.652491,8.06219 1.273685,2.025863 3.732588,1.939775 6.561873,1.181176 l 6.534242,-1.914357 c 2.064753,-0.421899 7.585766,-1.406283 9.816888,-1.341776 h 14.158635 c 2.931584,0 5.291664,-2.065073 5.291664,-4.630209 0,-2.565136 -2.36008,-4.630209 -5.291664,-4.630209 z"
       style="opacity:1;fill:#ffffff;fill-opacity:1;stroke:none;stroke-width:1.32300007;stroke-miterlimit:4;stroke-dasharray:none;stroke-opacity:1" />
    <path
       id="rect9755-8"
       d="m 200.13016,16.540001 c 0.65236,0 5.61709,0.10728 8.99947,0.361373 2.76659,0.554864 5.39965,1.306404 5.4934,1.331542 l 5.33101,1.58027 c 2.82929,0.758599 5.08121,5.789742 3.65249,8.062189 -1.27368,2.025863 -3.73259,1.939775 -6.56187,1.181176 l -6.53424,-1.914357 c -2.06476,-0.421899 -7.58577,-1.406283 -9.81689,-1.341776 h -14.15864 c -2.93158,0 -5.29166,-2.065073 -5.29166,-4.630209 0,-2.565135 2.36008,-4.630208 5.29166,-4.630208 z"
       style="opacity:1;fill:#ffffff;fill-opacity:1;stroke:none;stroke-width:1.32300007;stroke-miterlimit:4;stroke-dasharray:none;stroke-opacity:1" />
  </g>
  <g
     style="display:none"
     id="layer3">
    <rect
       ry="2.6458333"
       rx="2.6458333"
       y="54.297203"
       x="145.19176"
       height="5.2593584"
       width="14.818368"
       id="rect4517"
       style="opacity:1;fill:#ffffff;fill-opacity:1;stroke:none;stroke-width:1.23424733;stroke-miterlimit:4;stroke-dasharray:none;stroke-opacity:1" />
    <rect
       ry="2.6458333"
       rx="2.6458333"
       y="54.297203"
       x="119.6915"
       height="5.2593584"
       width="14.818368"
       id="rect4517-4"
       style="opacity:1;fill:#ffffff;fill-opacity:1;stroke:none;stroke-width:1.23424733;stroke-miterlimit:4;stroke-dasharray:none;stroke-opacity:1" />
    <circle
       r="8.8198938"
       cy="56.244408"
       cx="185.07018"
       id="path7046"
       style="opacity:1;fill:#ffffff;fill-opacity:1;stroke:none;stroke-width:1.32300007;stroke-miterlimit:4;stroke-dasharray:none;stroke-opacity:1" />
    <circle
       r="8.8198938"
       cy="56.244408"
       cx="209.12444"
       id="path7046-1"
       style="opacity:1;fill:#ffffff;fill-opacity:1;stroke:none;stroke-width:1.32300007;stroke-miterlimit:4;stroke-dasharray:none;stroke-opacity:1" />
    <path
       id="rect7063"
       d="m 80.161507,30.185699 c -0.293159,0 -0.529167,0.236008 -0.529167,0.529167 V 42.012368 H 68.334838 c -0.293155,0 -0.529166,0.236008 -0.529166,0.529166 v 9.097637 c 0,0.293159 0.236011,0.529167 0.529166,0.529167 H 79.63234 V 63.46584 c 0,0.293158 0.236008,0.529166 0.529167,0.529166 h 9.098153 c 0.293158,0 0.529166,-0.236008 0.529166,-0.529166 V 52.168338 h 11.297504 c 0.29316,0 0.52916,-0.236008 0.52916,-0.529167 v -9.097637 c 0,-0.293158 -0.236,-0.529166 -0.52916,-0.529166 H 89.788826 V 30.714866 c 0,-0.293159 -0.236008,-0.529167 -0.529166,-0.529167 z"
       style="opacity:1;fill:#ffffff;fill-opacity:1;stroke:none;stroke-width:1.32300007;stroke-miterlimit:4;stroke-dasharray:none;stroke-opacity:1" />
  </g>
</svg>

<svg xmlns="http://www.w3.org/2000/svg" viewBox="0 0 285.75 95.25" height="360" width="1080">
  <g fill="#fff">
    <circle transform="rotate(-24.88)" r="8.82" cy="130.65" cx="128.78"/>
    <path d="M78.12 37.57c-.3 0-.53.24-.53.53v11.3H66.3c-.29 0-.52.23-.52.53v9.1c0 .29.23.52.52.52h11.3v11.3c0 .3.24.53.53.53h9.1c.3 0 .53-.24.53-.53v-11.3h11.3c.29 0 .53-.23.53-.53v-9.1c0-.29-.24-.52-.53-.52h-11.3V38.1c0-.3-.24-.53-.53-.53z"/>
    <circle transform="rotate(-24.88)" r="8.82" cy="130.72" cx="151.38"/>
    <circle transform="rotate(-24.88)" r="8.82" cy="131.05" cx="173.98"/>
    <rect transform="rotate(-27.22)" ry="2.65" rx="2.65" y="102.34" x="135.74" height="4.54" width="18.98"/>
    <path d="M82.55 35.77a18.7 18.7 0 0 0-7.27 1.52 18.7 18.7 0 0 0-9.8 24.58 18.7 18.7 0 0 0 24.58 9.8 18.7 18.7 0 0 0 9.8-24.59 18.7 18.7 0 0 0-17.3-11.31zm.02 2.24a16.46 16.46 0 0 1 15.22 9.96 16.46 16.46 0 0 1-8.61 21.63 16.46 16.46 0 0 1-21.63-8.62 16.46 16.46 0 0 1 8.61-21.63 16.46 16.46 0 0 1 6.4-1.34z"/>
  </g>
</svg>
